assets/beam-light.svg

<svg fill="none" height="256" viewBox="0 0 256 256" width="256" xmlns="http://www.w3.org/2000/svg" xmlns:xlink="http://www.w3.org/1999/xlink">
<linearGradient id="a" gradientUnits="userSpaceOnUse" x1="38.0203" x2="6324.56" y1="3216.85" y2="3216.85">
<stop offset="0" stop-color="#ffc400"/>
<stop offset=".13695" stop-color="#fecd00"/>
<stop offset=".36528" stop-color="#fed400"/>
<stop offset="1" stop-color="#fed600"/>
</linearGradient>
<g clip-path="url(#b)">
<path d="m196 0h-136c-33.1371 0-60 26.8629-60 60v136c0 33.137 26.8629 60 60 60h136c33.137 0 60-26.863 60-60v-136c0-33.1371-26.863-60-60-60z" fill="#f4f2ed"/>
<g clip-path="url(#c)">
<path d="m38.0186 96.292 62.8654 31.207 67.876-33.6941v-26.3094l-130.7414-32.4154z" fill="#fee900"/>
<path d="m38.0186 35.0801v61.2119.8235 61.5895l130.7414-64.9001v-26.3094z" fill="#ffc400"/>
<path d="m38.0186 97.0574v61.5916l62.8654-31.207-62.8654-31.2066z" fill="url(#a)" opacity=".75"/>
<path d="m38.0186 96.292v62.414 60.592l130.7414-31.795v-26.311z" fill="#ffc400"/>
<path d="m37.4386 168.687v11.263l131.3204 9.248v-29.759z" fill="#ffe082"/>
<path d="m37 75.3666v11.262l131.15 9.2485v-29.7589z" fill="#ffe082"/>
<path d="m153.823 174.318c0 3.134 1.573 6.139 4.375 8.354 2.801 2.216 6.6 3.461 10.561 3.461v-23.63c-8.249 0-14.936 5.29-14.936 11.815z" fill="#fff"/>
<path d="m153.823 80.998c0 3.1335 1.573 6.1387 4.375 8.3544 2.801 2.2158 6.6 3.4606 10.561 3.4605v-23.6298c-8.249 0-14.936 5.2897-14.936 11.8149z" fill="#fff"/>
<path d="m215.678 153.935c-1.676-4.744-4.339-9.234-7.879-13.286-3.619-4.094-8.135-7.643-13.334-10.479-5.775-3.113-12.191-5.407-18.961-6.779 12.005-4.017 21.125-9.679 27.36-16.985 6.222-7.2713 9.484-15.8738 9.35-24.6537.257-8.306-1.782-16.5562-5.974-24.1746-3.84-6.6633-9.771-12.4391-17.229-16.7785-8.277-4.6608-17.632-7.9883-27.533-9.7931-12.025-2.2511-24.353-3.332-36.71-3.2187h-86.408v7.6964l127.975 31.5371c1.446.3721 2.425 1.4382 2.425 2.6411v22.6004c0 1.0048-.687 1.9313-1.795 2.4226l-65.567 32.814 65.567 32.815c1.108.491 1.795 1.418 1.795 2.423v22.601c0 1.202-.979 2.268-2.425 2.641l-127.975 31.536v7.697h92.468c12.367.13 24.696-1.115 36.624-3.698 10.03-2.158 19.398-5.909 27.533-11.027 7.551-4.873 13.493-11.125 17.316-18.217 4.166-8.008 6.2-16.611 5.975-25.269.019-5.093-.856-10.163-2.598-15.066z" fill="#ff6d00" stroke="#ff6d00" stroke-width=".4"/>
</g>
</g>
</svg>

<svg width="256" height="256" viewBox="0 0 256 256" fill="none" xmlns="http://www.w3.org/2000/svg">
<g clip-path="url(#clip0_169_919)">
<path d="M196 0H60C26.8629 0 0 26.8629 0 60V196C0 229.137 26.8629 256 60 256H196C229.137 256 256 229.137 256 196V60C256 26.8629 229.137 0 196 0Z" fill="#F4F2ED"/>
<path d="M38.0195 96.292L100.885 127.499L168.761 93.8049V67.4955L38.0195 35.0801V96.292Z" fill="#FEE900"/>
<path d="M38.0195 35.0801V96.292V97.1155V158.705L168.761 93.8049V67.4955L38.0195 35.0801Z" fill="#FFC400"/>
<path opacity="0.75" d="M38.0195 97.0574V158.649L100.885 127.442L38.0195 96.2354V97.0574Z" fill="url(#paint0_linear_169_919)"/>
<path d="M38.0195 96.292V158.706V219.298L168.761 187.503V161.192L38.0195 96.292Z" fill="#FFC400"/>
<path d="M37.4375 168.687V179.95L168.758 189.198V159.439L37.4375 168.687Z" fill="#FFE082"/>
<path d="M37 75.3666V86.6286L168.15 95.8771V66.1182L37 75.3666Z" fill="#FFE082"/>
<path d="M153.824 174.318C153.824 177.452 155.397 180.457 158.199 182.672C161 184.888 164.799 186.133 168.76 186.133V162.503C160.511 162.503 153.824 167.793 153.824 174.318Z" fill="white"/>
<path d="M153.824 80.9975C153.824 84.131 155.397 87.1362 158.199 89.3519C161 91.5677 164.799 92.8125 168.76 92.8124V69.1826C160.511 69.1826 153.824 74.4723 153.824 80.9975Z" fill="white"/>
<path d="M215.677 153.935C214.001 149.191 211.338 144.701 207.798 140.649C204.179 136.555 199.663 133.006 194.464 130.17C188.689 127.057 182.273 124.763 175.503 123.391C187.508 119.374 196.628 113.712 202.863 106.406C209.085 99.1347 212.347 90.5322 212.213 81.7523C212.47 73.4463 210.431 65.1961 206.239 57.5777C202.399 50.9144 196.468 45.1386 189.01 40.7992C180.733 36.1384 171.378 32.8109 161.477 31.0061C149.452 28.755 137.124 27.6741 124.767 27.7874H38.3594V35.4838L166.334 67.0209C167.78 67.393 168.759 68.4591 168.759 69.662V92.2624C168.759 93.2672 168.072 94.1937 166.964 94.685L101.397 127.499L166.964 160.314C168.072 160.805 168.759 161.732 168.759 162.737V185.338C168.759 186.54 167.78 187.606 166.334 187.979L38.3594 219.515V227.212H130.827C143.194 227.342 155.523 226.097 167.451 223.514C177.481 221.356 186.849 217.605 194.984 212.487C202.535 207.614 208.477 201.362 212.3 194.27C216.466 186.262 218.5 177.659 218.275 169.001C218.294 163.908 217.419 158.838 215.677 153.935Z" fill="#FF6D00"/>
</g>
<defs>
<linearGradient id="paint0_linear_169_919" x1="38.0212" y1="3216.85" x2="6324.56" y2="3216.85" gradientUnits="userSpaceOnUse">
<stop stop-color="#FFC400"/>
<stop offset="0.13695" stop-color="#FECD00"/>
<stop offset="0.36528" stop-color="#FED400"/>
<stop offset="1" stop-color="#FED600"/>
</linearGradient>
<clipPath id="clip0_169_919">
<rect width="256" height="256" fill="white"/>
</clipPath>
</defs>
</svg>
